X:2
T:Dolphin Dance
C:Herbie Hancock
L:1/4
M:C
I:linebreak $
K:Eb
"Eb" z2 (3G A B |"Eb74" F4 |"Eb" z2 (3G A B |"D7" F2"Db7" z2 |$"Cm" z2"Cm/Bb" (3E F G |
"Ab7b5" D2"D7" D2 |"Cm" z2"Cm/Bb" (3E F G ||[K:G]"Am" D2"Ab7" C2 |$"G" B, F3 ||
[K:Eb]"Abm" _G _G"Abm/Gb" (3A _G A |"Fm" B4 |"Bb7" z2"Fo" z B |$"Eb" G B3 |
"Cm" B B"Cm/Bb" (3c B c ||[K:G]"Am" d4 |"Ab7" z4 |$"G" z2 (3B c d |"G74" A4 |"G7b5" z2 (3G A B |
"G74" =F2"G7" z2 |$"F74" z2 (3_E =F G |"F7b5" D4 |"F74" z2 (3_E =F G |"Em" A2"A7" z2 |$
"Eb7" A/_B/A/G/ A A |"D7" d B z2 |"Bm" B/^c/B/A/ B B |"E7" e2"Dø" =f2 |$"Dbm" f2 (3e B ^G |
"F#7" ^d2 F2 |"E74" B4 |"Em6" z4 |"E74" z4 |"Em6" z4 |]

